svg/fluentui-system-icons/ic_fluent_mail_arrow_double_back_24_filled.svg

<svg width="24" height="24" viewBox="0 0 24 24" fill="none" xmlns="http://www.w3.org/2000/svg">
<path d="M17.5 12C20.5376 12 23 9.53757 23 6.5C23 3.46243 20.5376 1 17.5 1C14.4624 1 12 3.46243 12 6.5C12 9.53757 14.4624 12 17.5 12ZM15.8536 4.85355L14.2071 6.5L15.8536 8.14645C16.0488 8.34171 16.0488 8.65829 15.8536 8.85355C15.6583 9.04882 15.3417 9.04882 15.1464 8.85355L13.1464 6.85355C12.9512 6.65829 12.9512 6.34171 13.1464 6.14645L15.1464 4.14645C15.3417 3.95118 15.6583 3.95118 15.8536 4.14645C16.0488 4.34171 16.0488 4.65829 15.8536 4.85355ZM18.8536 4.14645C19.0488 4.34171 19.0488 4.65829 18.8536 4.85355L17.7071 6H20C20.8284 6 21.5 6.67157 21.5 7.5V8C21.5 8.27614 21.2761 8.5 21 8.5C20.7239 8.5 20.5 8.27614 20.5 8V7.5C20.5 7.22386 20.2761 7 20 7H17.7071L18.8536 8.14645C19.0488 8.34171 19.0488 8.65829 18.8536 8.85355C18.6583 9.04882 18.3417 9.04882 18.1464 8.85355L16.1464 6.85355C15.9512 6.65829 15.9512 6.34171 16.1464 6.14645L18.1464 4.14645C18.3417 3.95118 18.6583 3.95118 18.8536 4.14645ZM17.5 13C19.2465 13 20.8321 12.3112 22 11.1904V16.75C22 18.483 20.6435 19.8992 18.9344 19.9949L18.75 20H5.25C3.51697 20 2.10075 18.6435 2.00514 16.9344L2 16.75V8.608L11.652 13.6644C11.87 13.7785 12.13 13.7785 12.348 13.6644L14.7649 12.3983C15.5963 12.7844 16.523 13 17.5 13ZM5.25 4H11.4982C11.1772 4.76959 11 5.6141 11 6.5C11 8.49255 11.8966 10.2757 13.3083 11.468L12 12.1533L2.01619 6.92355C2.17386 5.34271 3.46432 4.09545 5.06409 4.00523L5.25 4Z" fill="#212121"/>
</svg>

<svg xmlns="http://www.w3.org/2000/svg" width="24" height="24"><path d="M17.5 12a5.5 5.5 0 1 0 0-11 5.5 5.5 0 0 0 0 11Zm-1.646-7.146L14.207 6.5l1.647 1.646a.5.5 0 0 1-.708.708l-2-2a.5.5 0 0 1 0-.708l2-2a.5.5 0 0 1 .708.708Zm3-.708a.5.5 0 0 1 0 .708L17.707 6H20a1.5 1.5 0 0 1 1.5 1.5V8a.5.5 0 0 1-1 0v-.5A.5.5 0 0 0 20 7h-2.293l1.147 1.146a.5.5 0 0 1-.708.708l-2-2a.5.5 0 0 1 0-.708l2-2a.5.5 0 0 1 .708 0ZM17.5 13a6.478 6.478 0 0 0 4.5-1.81v5.56a3.25 3.25 0 0 1-3.066 3.245L18.75 20H5.25a3.25 3.25 0 0 1-3.245-3.066L2 16.75V8.608l9.652 5.056a.75.75 0 0 0 .696 0l2.417-1.266A6.477 6.477 0 0 0 17.5 13ZM5.25 4h6.248A6.479 6.479 0 0 0 11 6.5c0 1.993.897 3.776 2.308 4.968L12 12.153l-9.984-5.23a3.25 3.25 0 0 1 3.048-2.918L5.25 4Z"/></svg>
